X:1
T:In the Shadow of His Wings
T:In the Shadow of His Wings
T:Charles Austin Miles
T:Eben Eugene Rexford, 1905
T:Public Domain Courtesy of the Cyber Hymnal™
T:Public Domain Courtesy of the Cyber Hymnal™
C:Charles Austin Miles
Z:Public Domain
Z:Courtesy of the Cyber Hymnal™
%%score 1 ( 2 3 )
L:1/8
Q:1/4=102
M:4/4
K:Ab
V:1 treble 
V:2 bass 
V:3 bass 
V:1
 [CE]>[CF] | [CE]2 [Ec]2 [DB]2 [CA]2 | [DF][FA]- [FA]4 [EG]>[DF] | [CE]2 [CA]2 [DB]2 [Ec]2 | %4
w: 1.~In the|times of bit- ter|trou- ble, * When the|heart is grieved with|
w: 2.~Just to|think! God is so|near us, * That His|hand our hand may|
w: 3.~Love of|God that fail- eth|ne- ver, * Foll’w- ing|all the wan- dering|
 [EB]6 [DE]>[DF] | [CE]2 [Ec]2 [DB]2 [CA]2 | [DF][FA]- [FA]4 [EG]>[DF] | [CE]2 [CA]2 [DA]2 [DG]2 | %8
w: loss, And o’er|rough, hard ways we|stum- ble, * ’Neath the|bur- den of our|
w: find If we|reach out in the|dark- ness, * Tho’ our|eyes with tears are|
w: feet, Hat- ing|sin, but seek- ing|sin- ners * With a|pa- tience strange as|
 [CA]6 [DG]>[DA] | [DB]2 [DE]2 [DF]2 [DG]2 | ([CA][DB]) [Ec]4 [Ec]>[Ec] | %11
w: cross, Then a|thought comes, com- fort|bring- * ing, And the|
w: blind! Close be-|side us! O the|com- * fort That this|
w: sweet; Fol- low,|fol- low, ev- er|fol- * low, Till Thy|
 [A=d]2 [AB]2 [Ac]2 [Ad]2 | [Ge]6 [Ac]>[Ad] | [Ae]2 [Ec]2 [Fd]2 [Ec]2 | [DB]2 [DA]2 [=B,G]2 [CF]2 | %15
w: heart’s dis- or- dered|strings Lose their|dis- cord in its|mu- sic— In the|
w: thought of near- ness|brings, Tho’ His|face for tears we|see not! In the|
w: lov- ing plead- ing|brings All Thy|child- ren to the|shel- ter In the|
 [CE] [Ec]3 [Ec]3 [DB] | [CA]6 ||"^Refrain" [EG]>[EA] | [EB]2 [Ec]2 [Ed]2 [EB]2 | %19
w: sha- dow of His|wings!|||
w: sha- dow of His|wings!|O the|thought is sweet- er,|
w: sha- dow of Thy|wings!|||
 [Ec][Ae]- [Ae]4 [Ec]>[DB] | [CA]2 [CF]2 [=DB]2 [Dc]2 | [DB]6 [Ac]>[Ad] | [Ae]2 [Ec]2 [Fd]2 [Ec]2 | %23
w: ||||
w: sweet- er, * Than the|song the sky- lark|sings, Soar- ing|toward the gates of|
w: ||||
 [DB]2 [DA]2 [=B,G]2 [B,F]2 | [CE] [Ec]3 [Ec]3 [DB] | [CA]6 |] %26
w: |||
w: Hea- ven— In the|sha- dow of His|wings!|
w: |||
V:2
 [A,,A,]>[A,,A,] | [A,,A,]2 [A,,A,]2 [A,,A,]2 [A,,A,]2 | [D,A,][D,A,]- [D,A,]4 [D,A,]>[D,A,] | %3
 [A,,A,]2 [A,,A,]2 [A,,A,]2 [A,,A,]2 | [E,G,]6 [E,G,]>[E,G,] | %5
 [A,,A,]2 [A,,A,]2 [A,,A,]2 [A,,A,]2 | [D,A,][D,A,]- [D,A,]4 [D,A,]>[D,A,] | %7
 [E,A,]2 [E,A,]2 [E,B,]2 [E,B,]2 | [A,,A,]6 [E,B,]>[E,A,] | [E,G,]2 [E,G,]2 [E,A,]2 [E,B,]2 | %10
 [A,,A,]2 [A,,A,]4 [A,,A,]>[A,,A,] | [B,,F,]2 [B,,F,]2 [B,,B,]2 [B,,B,]2 | [E,B,]6 A,>[A,B,] | %13
 [A,C]2 A,2 A,2 [A,,A,]2 | [D,F,]2 [D,F,]2 [=D,A,]2 [D,A,]2 | [E,A,] [E,A,]3 [E,G,]3 [E,G,] | %16
 [A,,A,]6 || [E,B,]>[E,A,] | [E,G,]2 [E,A,]2 [E,B,]2 [E,G,]2 | A,[A,C]- [A,C]4 [A,,A,]>[A,,A,] | %20
 [A,,A,]2 [A,,A,]2 [B,,F,]2 [B,,A,]2 | [E,G,]6 A,>[A,B,] | [A,C]2 A,2 A,2 [A,,A,]2 | %23
 [D,F,]2 [D,F,]2 [=D,A,]2 [D,A,]2 | [E,A,] [E,A,]3 [E,G,]3 [E,G,] | [A,,A,]6 |] %26
V:3
 x2 | x8 | x8 | x8 | x8 | x8 | x8 | x8 | x8 | x8 | x8 | x8 | x6 A,3/2 x/ | x2 A,2 A,2 x2 | x8 | %15
 x8 | x6 || x2 | x8 | A, x7 | x8 | x6 A,3/2 x/ | x2 A,2 A,2 x2 | x8 | x8 | x6 |] %26

